X: 20900
T: Joseph Dooley's
R: jig
M: 6/8
K: Gmajor
G2A|"G" B2g gfe|ded dBG|B2c dBG|"D" A2B cBA|
"G" G2g gfe|ded dBG|"D" A2B cBA|"G"(G3 G2)D|
"G" G2g gfe|ded dBG|B2c dBG|"D" A2B cBA|
"G" G2g gfe|ded dBG|"D" A2B cBA|"G" (G3 G2) A|
"G" B2B "C" dcA|"G" Bcd G2A|BAG "C" dcA|"G" Bcd G2A|
BAB dBd|gfg bag|"D" fed "A" ^cde|"D" d3 def|
"G" g2B BAB|d2G GAB|"C" cBc cBc|E2G GFE|
"G" D2G GFG|"D" A2B cBA|"G" GAB "D" dba|(g3 g2)A||

